X:1
T:There’s a Light in the Window
T:There’s a Light in the Window
T:T. P. Burt
T:T. P. Burt, 1912
T:Public Domain Courtesy of the Cyber Hymnal™
T:Public Domain Courtesy of the Cyber Hymnal™
C:T. P. Burt
Z:Public Domain
Z:Courtesy of the Cyber Hymnal™
%%score 1 ( 2 3 )
L:1/8
Q:1/4=100
M:4/4
K:Ab
V:1 treble 
V:2 bass 
V:3 bass 
V:1
 [CE][DF] | [EA]2 [EA][EA] [EB]<[Ac] [EB][EB] | [EA]6 [EA][Ec] | [Ae]2 [Ae][Ae] [Ac][EB] [FA]2 | %4
w: 1.~There’s a|beau- ti- ful ci- ty far a-|way, Hap- py|home just be- yond the dark|
w: 2.~O the|light of that ci- ty is the|Lord, There the|King in His glo- ry we’ll|
w: 3.~There are|an- gels of glo- ry in that|home, They are|wait- ing and watch- ing for|
 [GB]6 [CE][DF] | [EA][EA][EA][EB] [Ac][Ac][EB][EB] | [EA]6 !fermata![Ae][Af] | %7
w: sea; I can|see its gold- en splen- dor thro’ the|spray, There’s a|
w: see; And the|light to guide us there is His own|word, ’Tis a|
w: me; Sin- ner,|come and go with me, no more to|roam, There’s a|
 [Ae]2 [Ec][EA] [FB]<[Ac] [EB]2 | [EA]6 ||"^Refrain" [CE][DF] | [EA]2 [EA][EA] [FB][FA] [DF]2 | %11
w: light in the win- dow for|me.|||
w: light in the win- dow for|me.|There’s a|light in the win- dow for|
w: light in the win- dow for|me.|||
 [CA]6 [CA][Ec] | [Ae]2 [Ae][Ae] [Af][Ae] [Ac]2 | [GB]6 !fermata![Ae][Ae] | %14
w: |||
w: me, There’s a|light in the win- dow for|me; O the|
w: |||
 [Ac][Ae][Ec][EB] [EA]2 [Ec][DB] | [CA][CA][EB][Ec] !fermata![Fd]2 !fermata![Ae][Af] | %16
w: ||
w: word of God doth guide To that|home be- yond the tide, ’Tis a|
w: ||
 [Ge]2 [Ac][EA] [EB]<[Ac] [EB]2 | [EA]6 |] %18
w: ||
w: light in the win- dow for|me.|
w: ||
V:2
 [A,,A,][A,,B,] | [A,,C]2 [A,,C][A,,C] [A,,D]<[A,,E] [A,,D][A,,D] | [A,,C]6 [A,,C][A,,A,] | %3
 [A,C]2 [A,C][A,C] [A,E][G,E] [F,=D]2 | [E,E]6 A,[A,B,] | %5
 [A,C][A,C][A,C][A,D] [A,E][A,E][A,D][A,D] | [A,C]6 !fermata![A,C][A,D] | %7
 [A,C]2 A,[A,C] [E,D]<[E,E] [E,D]2 | [A,,C]6 || [A,,A,][A,,B,] | %10
 [A,,C]2 [A,,C][A,,C] [D,D][D,D] [D,A,]2 | [A,,A,]6 [A,,E,][A,,A,] | %12
 [A,C]2 [A,C][A,C] [A,D][A,C] [A,E]2 | [E,E]6 !fermata![A,C][A,C] | %14
 [A,E][A,C][A,E][A,C] [A,C]2 A,[E,G,] | %15
 [F,A,][F,A,][E,G,][E,A,] !fermata![D,A,]2 !fermata![C,A,][D,G,] | %16
 E,2 [E,A,][E,C] [E,D]<[E,E] [E,D]2 | [A,,C]6 |] %18
V:3
 x2 | x8 | x8 | x8 | x6 A, x | x8 | x8 | x2 A, x5 | x6 || x2 | x8 | x8 | x8 | x8 | x6 A, x | x8 | %16
 E,2 x6 | x6 |] %18

